X:710
T:Halling efter Per Myhr
T:första reprisen - variation på andrastämma
R:Halling
Z:Arr/transkr. Lennart Sohlman
M:2/4
L:1/16
Q:1/4=100
K:Bm
V:1
(C|:F2)(FG) F2(FD)|F2(EC) D2(D>E|F2)(FG F2)(FD)|[1F2EC D3(E:|[2F2EC D3(C|:!
V:2
(F,|:D2)(DE) D2(DB,)|D2(C^A,) B,2(B,>C|D2)(DE D2)(DB,)|[1D2C^A, B,3(F,:|[2D2C^A, B,3(^A,|:

